Assets/icons/curriculo.svg

<svg xmlns="http://www.w3.org/2000/svg" width="256" height="256" viewBox="0 0 128 128"><path d="M33.5 9c-7.2 0-13 5.8-13 13v80c0 7.2 5.8 13 13 13h61c7.2 0 13-5.8 13-13V22c0-7.2-5.8-13-13-13zm0 6h61c3.9 0 7 3.1 7 7v80c0 3.9-3.1 7-7 7h-61c-3.9 0-7-3.1-7-7V22c0-3.9 3.1-7 7-7m0 7v15h61V22zm4 29c-1.7 0-3 1.3-3 3s1.3 3 3 3h51c1.7 0 3-1.3 3-3s-1.3-3-3-3zm0 15c-1.7 0-3 1.3-3 3s1.3 3 3 3h51c1.7 0 3-1.3 3-3s-1.3-3-3-3zm0 15c-1.7 0-3 1.3-3 3s1.3 3 3 3H64c1.7 0 3-1.3 3-3s-1.3-3-3-3z"/></svg>

<?xml version="1.0"?><svg xmlns="http://www.w3.org/2000/svg"  viewBox="0 0 128 128" width="256px" height="256px">    <path d="M 33.5 9 C 26.3 9 20.5 14.8 20.5 22 L 20.5 102 C 20.5 109.2 26.3 115 33.5 115 L 94.5 115 C 101.7 115 107.5 109.2 107.5 102 L 107.5 22 C 107.5 14.8 101.7 9 94.5 9 L 33.5 9 z M 33.5 15 L 94.5 15 C 98.4 15 101.5 18.1 101.5 22 L 101.5 102 C 101.5 105.9 98.4 109 94.5 109 L 33.5 109 C 29.6 109 26.5 105.9 26.5 102 L 26.5 22 C 26.5 18.1 29.6 15 33.5 15 z M 33.5 22 L 33.5 37 L 94.5 37 L 94.5 22 L 33.5 22 z M 37.5 51 C 35.8 51 34.5 52.3 34.5 54 C 34.5 55.7 35.8 57 37.5 57 L 88.5 57 C 90.2 57 91.5 55.7 91.5 54 C 91.5 52.3 90.2 51 88.5 51 L 37.5 51 z M 37.5 66 C 35.8 66 34.5 67.3 34.5 69 C 34.5 70.7 35.8 72 37.5 72 L 88.5 72 C 90.2 72 91.5 70.7 91.5 69 C 91.5 67.3 90.2 66 88.5 66 L 37.5 66 z M 37.5 81 C 35.8 81 34.5 82.3 34.5 84 C 34.5 85.7 35.8 87 37.5 87 L 64 87 C 65.7 87 67 85.7 67 84 C 67 82.3 65.7 81 64 81 L 37.5 81 z"/></svg>
